!!!COM: Palestrina, Giovanni Perluigi da
!!!OPR: Missa Emendemus in melius
!!!OTL: Gloria
**kern	**kern	**kern	**kern
*Ibass	*Itenor	*Icalto	*Icant
!Bassus	!Tenor	!Altus	!Cantus
*clefF4	*clefGv2	*clefG2	*clefG2
*k[b-]	*k[b-]	*k[b-]	*k[b-]
*G:dor	*G:dor	*G:dor	*G:dor
*M4/2	*M4/2	*M4/2	*M4/2
=1	=1	=1	=1
1.D	1.d	1.f	1.a
2D	2d	2f	2a
=2	=2	=2	=2
1F	1c	1f	1a
1G	1B-	1d	1g
=3	=3	=3	=3
2D	1A	2d	2f
2F	.	2c	2a
2F	2D	1d	2a
4E	[2d	.	4g
4D	.	.	4f
=4	=4	=4	=4
2E	2d]	1G	2g
2E	2c#	.	2g
[1D	2d	2A	2f
.	[2A	[2f	[2a
=5	=5	=5	=5
1D]	2A]	2f]	2a]
.	2A	2f	2a
1r	1c	2e	1g
.	.	[2g	.
=6	=6	=6	=6
0r	1d	2g]	2b-
.	.	1f	1a
.	4A	.	.
.	4B-	.	.
.	[2c	4e	4g
.	.	4d	4f
=7	=7	=7	=7
0r	2c]	2e	2g
.	4B-	2.f	2a
.	4A	.	.
.	1B-	.	4d
.	.	4e	4e
.	.	[2d	4f
.	.	.	4d
=8	=8	=8	=8
1r	1A	2d]	1e
.	.	2c#	.
1G	1B-	2d	2r
.	.	2B-	2d
=9	=9	=9	=9
1F	1A	1c	1f
1E	1G	1c	1g
=10	=10	=10	=10
2D	2A	2d	2f
1D	1d	1f	1a
2D	2d	2f	2a
=11	=11	=11	=11
2F	1c	1f	1a
2F	.	.	.
1G	2B-	2d	2g
.	2B-	2d	2g
=12	=12	=12	=12
1D	2A	1d	2f
.	1B-	.	1dd
1r	.	2f	.
.	2B-	2d	2dd
=13	=13	=13	=13
0r	1A	1e	1cc
.	1G	1g	1b-
=14	=14	=14	=14
2r	0d	2f	2a
2D	.	2F	2f
2D	.	2A	2f
2D	.	2B-	2f
=15	=15	=15	=15
1C	1G	2c	1e
.	.	4G	.
.	.	4A	.
1BB-	2G	4B-	1d
.	.	4c	.
.	2G	4d	.
.	.	4B-	.
=16	=16	=16	=16
0AA	1F	2c	0a
.	.	1d	.
.	1E	.	.
.	.	2c#	.
=17	=17	=17	=17
2r	2D	1d	2r
1D	1A	.	1f#
.	.	2r	.
2D	2A	[2d	2f#
=18	=18	=18	=18
1D	1A	4d]	1f#
.	.	4d	.
.	.	2d	.
[1GG	[1B-	[1d	[1g
=19	=19	=19	=19
2GG]	2B-]	2d]	2g]
2D	2A	2d	2f
2.D	2A	2d	2.f
.	[2d	[2f	.
4E	.	.	4g
=20	=20	=20	=20
2F	4d]	4f]	2a
.	4c	4e	.
2G	1B-	1d	2b-
1E-	.	.	[1g
.	4A	2c	.
.	4G	.	.
=21	=21	=21	=21
1D	2B-	1d	2g]
.	2A	.	2f
[1BB-	[1d	[1f	1b-
=22	=22	=22	=22
2BB-]	2d]	2f]	1b-
2BB-	2d	2f	.
2F	2c	2f	2a
2F	2c	2f	2a
=23	=23	=23	=23
1G	2B-	2d	2g
.	2B-	2B-	2d
2F	2A	1c	2f
2F	[2c	.	[2a
=24	=24	=24	=24
1G	4c]	2e-	4a]
.	4B-	.	4g
.	4B-	4d	1g
.	8A	4c	.
.	8G	.	.
1D	1A	1d	.
.	.	.	2f#
=25	=25	=25	=25
1GG	2.B-	2d	2g
.	.	2.g	2.b-
.	4c	.	.
1r	1d	.	.
.	.	4g	4b-
.	.	2f	2a
=26	=26	=26	=26
1r	1r	2e-	2g
.	.	2d	2f
2r	2r	2e-	[1g
[2G	[2B-	4d	.
.	.	4c	.
=27	=27	=27	=27
4G]	4B-]	1d	2g]
4G	4B-	.	.
2F	2A	.	2a
2E-	2G	2r	[1b-
2D	2F	2f	.
=28	=28	=28	=28
2E-	2G	2e-	2b-]
2E-	2G	1e-	4cc
.	.	.	4dd
1C	2G	.	1ee-
.	2A	4d	.
.	.	4c	.
=29	=29	=29	=29
2BB-	2B-	1f	1dd
1B-	1d	.	.
.	.	1f	1r
2A	2c	.	.
=30	=30	=30	=30
2G	2B-	0r	0r
2F#	2A	.	.
1G	2B-	.	.
.	[2d	.	.
=31	=31	=31	=31
2E-	2d]	1r	1r
2E-	2c	.	.
1D	2d	2r	2r
.	[2D	[2f	[2a
=32	=32	=32	=32
0r	4D]	4f]	4a]
.	4D	4f	4a
.	2E	2e	2g
.	2F	2d	2f
.	2A	2c#	2e
=33	=33	=33	=33
0r	2D	2d	2f
.	2D	2d	2f
.	8G	2B-	2d
.	8A	.	.
.	8B-	.	.
.	8c	.	.
.	[2d	2B-	2d
=34	=34	=34	=34
1r	2d]	1A	1e
.	2c#	.	.
[1G	1d	2.B-	2.g
.	.	4c	4a
=35	=35	=35	=35
0G]	2.B-	1d	4b-
.	.	.	4cc
.	.	.	2dd
.	4c	.	.
.	1d	1g	4b-
.	.	.	4cc
.	.	.	4dd
.	.	.	4b-
=36	=36	=36	=36
1E-	1e-	1g	2cc
.	.	.	1b-
1F	1c	1f	.
.	.	.	2a
=37	=37	=37	=37
2BB-	2d	2f	0b-
2.BB-	2.B-	2.d	.
4BB-	4B-	4d	.
2BB-	2B-	2d	.
=38	=38	=38	=38
1E-	2B-	1g	0r
.	2c	.	.
1D	1d	1f	.
=39	=39	=39	=39
1.E-	2.B-	1.g	2r
.	.	.	2.b-
.	4A	.	.
.	2G	.	.
.	.	.	4b-
2D	[2B-	2f	2b-
=40	=40	=40	=40
1C	2B-]	2g	1ee-
.	2A	2c	.
1BB-	2.B-	2.d	2dd
.	.	.	[2b-
.	4A	4c	.
=41	=41	=41	=41
0r	2G	4d	2b-]
.	.	4e	.
.	2F	1f	2a
.	1c	.	1g
.	.	2e	.
=42	=42	=42	=42
2r	2r	2f	2f
2.BB-	2.B-	2.d	2.f
4BB-	4B-	4d	4f
2BB-	2B-	2d	2f
=43	=43	=43	=43
1E-	1G	2B-	1g
.	.	2c	.
2D	2A	2d	2f
[2D	[2F	[2d	[2a
=44	=44	=44	=44
4D]	4F]	4d]	4a]
4D	4F	4d	4a
2D	2F	2d	2a
1GG	1B-	1d	1g
=45	=45	=45	=45
0D	0A	0d	0f#
=46	=46	=46	=46
0D	1r	0r	0r
.	1d	.	.
=47	=47	=47	=47
1F	1c	0r	0r
[1G	2B-	.	.
.	4G	.	.
.	4A	.	.
=48	=48	=48	=48
2G]	4B-	0r	0r
.	4c	.	.
2F	2d	.	.
2G	2B-	.	.
2A	2c	.	.
=49	=49	=49	=49
2.B-	2.G	0r	0d
4A	4A	.	.
2G	2B-	.	.
4F	4A	.	.
4E	4G	.	.
=50	=50	=50	=50
4D	2A	0r	1f
4E	.	.	.
4F	1d	.	.
4D	.	.	.
1E	.	.	[1g
.	2c#	.	.
=51	=51	=51	=51
1D	1d	2r	2g]
.	.	2d	2f
1r	1r	2e	2g
.	.	2f	2a
=52	=52	=52	=52
0r	2r	2.g	2.b-
.	2G	.	.
.	.	4f	4a
.	2c	2e	2g
.	2d	[2f	4f
.	.	.	4e
=53	=53	=53	=53
0r	1B-	4f]	4d
.	.	4e	4e
.	.	1d	4f
.	.	.	4d
.	1A	.	1e
.	.	2c#	.
=54	=54	=54	=54
1.G	2r	2d	2d
.	1d	1g	1b-
2G	2d	2g	2b-
=55	=55	=55	=55
1D	1d	1f	1a
[1E-	2B-	1e-	2.g
.	[2c	.	.
.	.	.	4a
=56	=56	=56	=56
1E-]	4c]	2.g	1b-
.	4B-	.	.
.	1B-	.	.
.	.	4f	.
1C	.	4e-	1cc
.	.	4d	.
.	2A	2e-	.
=57	=57	=57	=57
1BB-	1B-	0d	0f
1D	1r	.	.
=58	=58	=58	=58
1.F	1D	1r	1a
.	1F	1A	1a
4E	.	.	.
4D	.	.	.
=59	=59	=59	=59
1E-	1.G	1c	2.g
.	.	.	4a
1D	.	[1d	2b-
.	2F#	.	2a
=60	=60	=60	=60
0r	2G	2d]	2b-
.	2A	2c	4a
.	.	.	4g
.	2B-	2d	2f
.	4A	2e	2g
.	4G	.	.
=61	=61	=61	=61
0r	[0F	2.f	2.a
.	.	4e	4g
.	.	2d	4a
.	.	.	4b-
.	.	4c	[2cc
.	.	4B-	.
=62	=62	=62	=62
0r	1F]	4A	4cc]
.	.	4B-	4b-
.	.	4c	1a
.	.	4A	.
.	1G	1B-	.
.	.	.	2g
=63	=63	=63	=63
1.D	2r	2A	2a
.	1d	1f	1a
2D	2d	2f	2a
=64	=64	=64	=64
1D	2d	1f	1a
.	2.d	.	.
1BB-	.	1f	[1dd
.	4c	.	.
.	[2B-	.	.
=65	=65	=65	=65
1F	2B-]	1f	2dd]
.	2A	.	2cc
2G	2B-	2d	2b-
2A	2c	2c	2a
=66	=66	=66	=66
1B-	1d	2B-	2g
.	.	2d	2f
1E-	2c	2.e-	1g
.	[2B-	.	.
.	.	4d	.
=67	=67	=67	=67
1F	4B-]	1c	1.f
.	8A	.	.
.	8G	.	.
.	2A	.	.
2BB-	2B-	2d	.
2BB-	2d	2f	2b-
=68	=68	=68	=68
1BB-	1d	1f	1b-
2F	2c	1f	1a
2F	2A	.	.
=69	=69	=69	=69
2E	2c	0r	0r
2D	2B-	.	.
4F	2A	.	.
4E	.	.	.
4D	[2B-	.	.
4C	.	.	.
=70	=70	=70	=70
1D	4B-]	1r	1r
.	4A	.	.
.	1A	.	.
1BB-	.	2.d	2r
.	2G	.	[2dd
.	.	4e	.
=71	=71	=71	=71
1AA	1A	2f	2dd]
.	.	2e	2cc
1r	1r	2g	2b-
.	.	2f	2a
=72	=72	=72	=72
0r	1r	4e	4g
.	.	4d	4f
.	.	1d	4f
.	.	.	8e
.	.	.	8d
.	[1A	.	1e
.	.	2c#	.
=73	=73	=73	=73
1.D	2A]	[0d	2d
.	2A	.	1f#
.	[1A	.	.
2D	.	.	2f#
=74	=74	=74	=74
1D	1A]	1d]	1f#
1GG	1B-	2r	1g
.	.	[2d	.
=75	=75	=75	=75
2.D	1A	2d]	2.f
.	.	2d	.
4E	.	.	4g
2F	2D	1d	2a
2G	[2B-	.	2b-
=76	=76	=76	=76
1E-	2B-]	1G	1g
.	4A	.	.
.	4G	.	.
1D	1A	2.d	2f
.	.	.	2a
.	.	4e	.
=77	=77	=77	=77
1r	2D	2f	2a
.	1G	2g	2b-
1C	.	1e-	1cc
.	[2c	.	.
=78	=78	=78	=78
1.G	2c]	1d	1dd
.	4B-	.	.
.	4A	.	.
.	2B-	2r	1r
2F#	2A	[2d	.
=79	=79	=79	=79
2G	2B-	2d]	1g
2E-	2c	1g	.
1D	1d	.	2b-
.	.	2f#	2a
=80	=80	=80	=80
1r	2r	2g	2b-
.	2A	2e-	2cc
2r	[1B-	[1d	[1dd
2G	.	.	.
=81	=81	=81	=81
2G	2B-]	0d]	1dd]
2F#	2A	.	.
1G	1B-	.	1r
=82	=82	=82	=82
2F	2c	2r	2r
2E-	2c	2g	2g
1D	1d	2g	2b-
.	.	2f#	2a
=83	=83	=83	=83
0r	1r	1g	1b-
.	1A	2f	2cc
.	.	2e-	2cc
=84	=84	=84	=84
0G	0B	1d	2dd
.	.	.	1dd
.	.	1d	.
.	.	.	[2g
=85	=85	=85	=85
0C	1c	2.e-	2g]
.	.	.	2.ee-
.	.	4c	.
.	1e-	1g	.
.	.	.	4dd
.	.	.	[2cc
=86	=86	=86	=86
0G	0d	0g	2cc]
.	.	.	4b
.	.	.	4a
.	.	.	1b
=87	=87	=87	=87
2C	2r	2e	2cc
2C	2c	2e	2g
2F	2c	2f	2a
2A	2c	2c	2a
=88	=88	=88	=88
2.G	2.B-	2d	2.b-
.	.	2e	.
4G	4B-	.	4b-
[1F	1c	1f	2a
.	.	.	2a
=89	=89	=89	=89
1F]	1A	2r	2.cc
.	.	2c	.
.	.	.	4cc
1r	2.d	2.f	2b-
.	.	.	[2a
.	4d	4f	.
=90	=90	=90	=90
0r	2c	2e	2a]
.	1B-	1d	2g
.	.	.	4f
.	.	.	4g
.	2A	2c	4a
.	.	.	8g
.	.	.	8a
=91	=91	=91	=91
0r	2G	2d	2b-
.	2F	2d	2.a
.	1G	1B-	.
.	.	.	4g
.	.	.	[2g
=92	=92	=92	=92
1D	2d	1A	2g]
.	2d	.	2f#
2.G	2.B-	2r	1g
.	.	2G	.
4G	4B-	.	.
=93	=93	=93	=93
2F	2A	2.c	0r
1E-	1G	.	.
.	.	4c	.
.	.	1B-	.
2D	2F	.	.
=94	=94	=94	=94
2E-	2G	1B-	2r
2E-	1B-	.	2b-
1C	.	1c	2.ee-
.	2A	.	.
.	.	.	4ee-
=95	=95	=95	=95
2BB-	2B-	[0f	2dd
4BB-	1B-	.	1dd
4C	.	.	.
4D	.	.	.
4E	.	.	.
2F	2A	.	2cc
=96	=96	=96	=96
1BB-	2d	1f]	2b-
.	2d	.	2b-
2C	2.c	1e-	4a
.	.	.	4g
2C	.	.	[2g
.	4B-	.	.
=97	=97	=97	=97
1D	1A	1d	2g]
.	.	.	2f#
[1GG	[1B	[1d	[1g
=98	=98	=98	=98
1GG]	1B]	1d]	1g]
==	==	==	==
*-	*-	*-	*-
!!!CDT: 1525/^1526/-1594/2/2
!!!OCY: Italia
!!!AGN: Mass (Parody)
!!!AST: renaissance, vocal
!!!ASW: Antiphon
!!!PWK: Masses, Book 7
!!!RNB: Cadence finals: D
!!!YOR: Le Opere Complete, v. 23, p. 61
!!!YOO: Rome, Italy: Fratelli Scalera
!!!END: 1992//
!!!EED: John Miller
!!!YEC: Copyright 2000, John Miller
!!!YEN: United States of America
!!!YEM: Rights to all derivative electronic formats reserved.
!!!YEM: Refer to licensing agreement for further details.
!!!YEM: This file must be accompanied by the licensing agreement.
!!!YEM: A copy of the licensing agreement may be found at http://www.music-cog.ohio-state.edu/HumdrumDatabases/Palestrina/license.txt
!!!EMD: converted to Humdrum by Bret Aarden
